X:1
T:Symp;hony No. 6 in F Major
T:Symphony No. 6 in F Major
T:"Pastoral" 3rd Movement
T:Ludwig van Beethoven
T:Arranged for piano by Franz Liszt
C:Ludwig van Beethoven
%%score { ( 1 4 ) | ( 2 3 5 ) }
L:1/8
Q:1/4=288
M:3/4
K:F
V:1 treble nm="Piano" snm="Pno."
V:4 treble 
V:2 bass 
V:3 bass 
V:5 bass 
V:1
"^Allegro"!pp! .c2 | .f2 .c2 .d2 | .c2 .A2 .B2 | .A2 .F2 .G2 | .A2 .F2 .G2 |{/F} .A2 .F2 .G2 | %6
{/D} .F2 .D2 .E2 |{/A,} .D2 .A,2 .A,2 | .A,2 z2 A2 | [Dd]4 [^F^f]2 | [Aa]2 [^F^f]2 [Ff]2 | %11
 [Aa]2 [^c^c']2 [dd'][=B=b] | [Aa]4 [^ce^c']2 | [d^fd']2 [fa]2 [=Bg=b]2 | [A^fa]2 [Adf]2 [=Bdg]2 | %15
 [Ad^f]2 [^Fd]2 fe | .d2 z2 :|!p! .a2 | .d'2 .a2 .=b2 | .a2 .^f2 .g2 | .^f2 .d2 .e2 | %21
 .^f2 .d2 .d2 | .g2 .d2 .e2 | .d2 .=B2 .c2 | .=B2 .[G,G]2 .[A,A]2 | .[=B,=B]2 .[G,G]2 G2 | %26
 [Cc]4 [Ee]2 | [Gg]2 [Ee]2 [Ee]2 | [Gg]2 [=B=b]2 [cc'][Aa] | [Gg]4 [=Bd=b]2 | %30
 [cec']2 [eg]2 [Afa]2 | [Geg]2 [Gce]2 [Ac-f]2 | [Gce]2 [EGc]2 [G=Bd]2 | %33
 [Ece]2!p! [Gc]2"_cresc." [Cc]2 | [cc']2 [cac']2 [cbc']2 | [cac']2 [cfc']2 [cgc']2 | %36
 [cfc']2 [cc']2 [cgc']2 | [cac']2 [cfc']2!ff! .[cc']2 | .[ff']2 .[cfc']2 .[dfd']2 | %39
 .[cfc']2 .[Afa]2 .[Bfb]2 | .[Afa]2!ff! .[Ff]2 .[Gfg]2 | .[Afa]2!ff! .[Ff]2 .[Gfg]2 | %42
 .[Afa]2!ff! .[Ff]2 .[Gg]2 | .[Aa]2!ff! .[Ff]2 .[Gg]2 | [Aa]6 |!ff!{/ga} [Gg]4 [Ff]2 | %46
{/ef} [Ee]4 [Dd]2 | [Cc]4 [Ee]2 | [Fcf]6 | [Gdfg]6 | [Acfa]6 | [Gceg]6 | %52
!ff! .[Acfa]2 z2!ff! [aa']2 |{/g'a'} [gg']4 [ff']2 |{/e'f'} [ee']4 [dd']2 | [cc']4 [ec'e']2 | %56
 [fc'f']6 | [gd'f'g']6 | [ac'f'a']6 | [gc'e'g']6 |!ff! [fc'f'] A,CF .A2 | Acfa .c'2 | %62
!8va(! ac'f'a' .c''2!8va)! | [EGBe]2 [EGBe]2 [EGBe]2 | [FAf]!ff! A,CF .A2 | Acfa .c'2 | %66
!8va(! ac'f'a' .c''2!8va)! | .[egbe']2 .[egbe']2 .[egbe']2 | .[faf']2!ff! [FA]2 [FA]2 | %69
 [Ac]2 [FA]2 [FA]2 | .[faf']2!ff! [FA]2 [FA]2 | [Ac]2 [FA]2!ff! [FA]2 |"_dim." [Ac]2 [FA]2 [FA]2 | %73
 [Ac]2 [FA]2 [FA]2 | z6 | z6 | z2!p! a2 c'2- | c'2 a2 f2- | f2 ef g2- | g2 f2 g2 | a2 g2 f2 | %81
 g2 a2 b2 | a2 b2 c'2- | c'6 | z2 a2 c'2- | c'2 a2 f2- | f2 ef g2- | g2 a2 b2 | c'2 [cb]2 [ca]2 | %89
 g4 a2 | b2 g2 a2 | [Acf]2 z2 z2 | z2!8va(! [aa']2 [c'c'']2- | [c'c'']2 [aa']2 [ff']2- | %94
 [ff']2 [ee'][ff'] [gg']2- | [gg']2 [ff']2!mp! [gg']2 | [aa']2 [gg']2 [ff']2 | %97
 [gg']2 [aa']2 [bb']2 | a2 b2 c'2- | a'2 b'2 c''2 | z2 [aa']2 [c'c'']2- | [c'c'']2 [aa']2 [ff']2- | %102
 [ff']2 [ee'][ff'] [gg']2- | [gg']2 [aa']2 [bb']2 | [c'c'']2 [bb']2 [aa']2 | [gg']4 [aa']2 | %106
 b'2 g'2 a'2 | f'2 x4!8va)! | .g2 .c2 e2- | e2 .c2 G2- | G2 =Bc d2- | d2 .c2 .d2 | e2 d2 c2 | %113
 d2 e2 f2 | e2 f2 g2 | g6 |"_cresc." gbgecB | GECB,[I:staff +1]G,E, | %118
!mf! F,2!p![I:staff -1] .A2 c2- | c2 A2 F2- | F2 C2 G2- | G2 F2 G2 | A2 G2 F2 | G2 A2 B2 | %124
 A2 B2 c2- | c6- | x2 a2 c'2- | c'2 a2 f2 | g2 c2 g2- | g2 f2 g2 | a2 A2 B2 | c2 B2 A2 | G4 A2 | %133
 B2 G2 A2 | F2 [Afa]2 [Bgb]2 | [cac']2 [Bgb]2 [Afa]2 | [Geg]4 [Afa]2 | [Bgb]2 [GBg]2 [Aca]2 | %138
!p! [Ff]2 x2 B2 | [fa]2 [ac']2 [gb]2 | G4 A2 | [eg]2 [gb]2 [fa]2 |"_cresc." [FAf]6 | %143
 [Aa]2 [cc']2 [Bb]2 | [EBe]6 | [Gg]2 [Bb]2 [Aa]2 |!f! [FAf]2 z4 | z6 | z6 | z6 |] %150
[M:2/4][Q:1/4=126]"^a Tempo Allegro" FG/F/ CD/E/ | F!ff!G/F/ C2 | B,/!ff!C/D/_E/ .FF/<G/ | %153
 .C!ff!C/<F/ B,2 | FG/F/ CD/E/ | F!ff!G/F/ C2 | B,/!ff!C/D/_E/ .FF/<G/ | .C!ff!C/<F/ B,2 | %158
 (3[FAf]!ff![Aa][Bb] [cac']2 | (3[FAf]!ff![Aa][Bb] [cac']2 | (3[Fdf]!ff![Bb][cc'] [dbd']2 | %161
 [c_ec']2 [Bdb]2 | (3[FAf]!ff![Aa][Bb] [cac']2 | (3[FAf]!ff![Aa][Bb] [cac']2 | %164
 (3[Fdf]!ff![Bb][cc'] [dbd']2 | [c_ec']2 [Bdb]2 | c2 [Fdf]2!ff! | [Ece]2 [Beb]2!ff! | %168
 [Afa]2 [FAf]2!ff! | !^![EBe]2 A=B | [cc']2 [fd'f']2!ff! | [ec'e']2 [be'b']2!ff! | %172
 [af'a']2 [faf']2!ff! | !^![ebe']2 !^![faf']2 |!ff! C2 F2 | E2 x A | %176
 !^!G/4A/4.G/ z !^!F/4G/4.F/ z | !^!E/4F/4.E/ z !^!D/4E/4.D/ z | CD/C/ FF | [CE][DF]/[CE]/ x A | %180
 .G .[Gceg] z .[FAcf] | z .[EGce] z .[DF=Bd] | [CEc]3 [EGce] |!f! [EGce]3 [CEGc] | [CEGc]3 [Gceg] | %185
 [Gceg]3 [EGc] | [EGc][cegc'] [cegc'][EGc] | [EGc][egc'e'] [egc'e'][EGce] | %188
[Q:1/4=60] !^!!fermata!e4 |!p! !arpeggio!.[CEc] z[Q:1/4=60] !fermata!z2!D.C.! || %190
[M:3/4]!pp![Q:1/4=288]"^Tempo I" .c2 | .f2 .c2 .d2 | .c2 .A2 .B2 | .A2 .F2 .G2 | .A2 .F2 .G2 | %195
{/F} .A2 .F2 .G2 |{/D} .F2 .D2 .E2 |{/A,} .D2 .A,2 .A,2 | .A,2 z2!pp! A2 | [Dd]4 [^F^f]2 | %200
"_cresc." [Aa]2 [^F^f]2 [Ff]2 | [Aa]2 [^c^c']2 [dd']=b | a2 ^c'2 [dd']_b | a2 =c'2 [dd']b | %204
 a2 c'2 [db][Bg] |!f! .[Af]2 z2 z2 | z6 | [GBe]2 z2 z2 | z2 z2!p! [Cc]2 | [Ff]4 [Aa]2 | %210
 [cc']2 [Aa]2 [Aa]2 | [cc']2 [ee']2 [fd'f'][bd'] | [cac']4 [ege']2 | [faf']2 [cac']2 [dbd']2 | %214
 [cac']2 [Afa]2 [Bgb]2 | [Afa]2 [Acf]2 [Geg]2 | [Afa]2 f2 [Cc]2 |"_cresc." [Ff]2 [Cc]2 [Dd]2 | %218
 [Cc]2 [A,A]2 [B,B]2 | [A,A]2 [F,F]2 [G,G]2 | [A,A]2 [F,F]2!ff! .[cc']2 | .[ff']2 .[cc']2 .[dd']2 | %222
 .[cc']2 .[Aa]2 .[Bb]2 | .[Aa]2 .[Ff]2!ff! .[Gg]2 | .[Aa]2 .[Ff]2!ff! .[Gg]2 | %225
 .[Aa]2 .[Ff]2!ff! .[Gg]2 | .[Aa]2 .[Ff]2!ff! .[Gg]2 | [Aa]6 |!ff!{/ga} [Gg]4 [Ff]2 | %229
{/ef} [Ee]4 [Dd]2 | [Cc]4 [Ece]2 | [Fcf]6 | [Gdfg]6 | [Acfa]6 | [Gceg]6 | %235
 .[Acfa]2 z2!ff!!8va(! [aa']2 |{/g'a'} [gg']4 [ff']2 |{/e'f'} [ee']4 [dd']2 | [cc']4 [ec'e']2 | %239
 [fc'f']6 | [gd'f'g']6 | [ac'f'a']6 | [gc'e'g']6 | [fc'f']!8va)! A,CF .A2 | Acfa .c'2 | %245
!8va(! ac'f'a' .c''2!8va)! | .[EGBe]2 .[EGBe]2 .[EGBe]2 | .[FAf]!ff! A,CF .A2 | Acfa .c'2 | %249
!8va(! ac'f'a' .c''2!8va)! | .[ebe']2 .[ebe']2 .[ebe']2 | .[faf']2 z2 z2 | .[faf']2 z2 z2 | %253
 .[faf']2 z2 z2 |] %254
V:2
 .C2 | .F2 .C2 .D2 | .C2 .A,2 .B,2 | .A,2 .F,2 .G,2 | .A,2 .F,2 .G,2 | .A,2 .F,2 .G,2 | %6
 .F,2 .D,2 .[E,,E,]2 | .[D,,D,]2 .[A,,,A,,]2 .[A,,,A,,]2 | .[A,,,A,,]2 z2 A,,2 |!ped! x4 [D,A,-]2 | %10
 A,4 [D,A,-]2 | A,4 [D,A,-]2 | A,4!ped-up! [D,A,-]2 | A,4 [D,A,-]2 | A,4 [D,A,-]2 | A,4 [A,,A,]2 | %16
 .[D,,D,]2 z2 :|[K:treble] .A2 | .d2 .A2 .=B2 | .A2 .^F2 .G2 | .^F2 .D2 .E2 | %21
 .^F2 .D2[K:bass] .D2 | .G2 .D2 .E2 | .D2 .=B,2 .C2 | .=B,2 .[G,,,G,,]2 .[A,,,A,,]2 | %25
 .[=B,,,=B,,]2 .[G,,,G,,]2 G,,2 |!ped! x4 [C,G,-]2 | G,4 [C,G,-]2 | G,4 [C,G,-]2 | %29
 G,4 [C,G,-]2!ped-up! | G,4 [C,G,-]2 | G,4 [C,G,]2 | [C,,C,]4 [G,,G,]2 | [C,G,]2 [E,C]2 [C,,C,]2 | %34
 [C,C]2 [A,,A,]2 [B,,B,]2 | [A,,A,]2 [F,,F,]2 [G,,G,]2 | [F,,F,]2 [C,,C,]2 [G,,G,]2 | %37
 [A,,A,]2 [F,,F,]2 .[C,,C,]2 | .[F,,F,]2 .[C,,F,,C,]2 .[D,,F,,D,]2 | %39
 .[C,,F,,C,]2 .[A,,,F,,A,,]2 .[B,,,F,,B,,]2 | .[A,,,F,,A,,]2 .[F,,,F,,]2 .[G,,,F,,G,,]2 | %41
 .[A,,,F,,A,,]2 .[F,,,F,,]2 .[G,,,F,,G,,]2 | .[A,,,F,,A,,]2 .[F,,,F,,]2 .[G,,,G,,]2 | %43
 .[A,,,A,,]2 .[F,,F,]2 .[G,,G,]2 | [A,,A,]6 | [G,,G,]4 [F,,F,]2 | [E,,E,]4 [D,,D,]2 | %47
 [C,,C,]4 [B,,,G,,B,,]2 | [A,,,F,,A,,]6 | [B,,,D,,G,,B,,]6 | [C,,F,,A,,C,]6 | [C,,E,,G,,C,]6 | %52
 .[F,,A,,C,F,]2 z2 [A,,A,]2 | [G,,G,]4 [F,,F,]2 | [E,,E,]4 [D,,D,]2 | [C,,C,]4 [B,,,G,,B,,]2 | %56
 [A,,,F,,A,,]6 | [B,,,D,,G,,B,,]6 | [C,,F,,A,,C,]6 | [C,,E,,G,,C,]6 | %60
!ped! [F,,A,,F,]2 [F,A,]2 [F,A,]2 | [A,C]2 [F,A,]2 [F,A,]2 | [A,C]2 [F,A,]2 [F,A,]2!ped-up! | %63
!ped! [C,E,G,C]2 [C,E,G,C]2 [C,E,G,C]2!ped-up! |!ped! [F,,A,,C,F,]2 [F,A,]2 [F,A,]2 | %65
 [A,C]2 [F,A,]2 [F,A,]2 | [A,C]2 [F,A,]2 [F,A,]2!ped-up! | %67
!ped! .[C,,E,,G,,C,]2 .[C,,E,,G,,C,]2 .[C,,E,,G,,C,]2!ped-up! |!ped! .[F,,,F,,]2 [F,A,]2 [F,A,]2 | %69
 [A,C]2 [F,A,]2 [F,A,]2 | .[F,,,F,,]2 [F,A,]2 [F,A,]2 | [A,C]2 [F,A,]2 [F,A,]2!ped-up! | z6 | z6 | %74
 x6 | x6 |!pp![I:staff -1] [Ac]2 [FA]2 [FA]2 | [Ac]2 [FA]2 [FA]2 | [Bc]2 [FB]2 [FB]2 | %79
 [Bc]2 [FB]2 [FB]2 |!p!!ped! [Ac]2!pp! [FA]2 [FA]2!ped-up! | %81
!p!!ped! [Gc]2!pp! [EG]2 [EG]2!ped-up! |!mp!!ped![I:staff +1] x2!pp![I:staff -1] [FA]2 [FA]2 | %83
 [Ac]2 [FA]2 [FA]2!ped-up! | [Ac]2 [FA]2 [FA]2 | [Ac]2 [FA]2 [FA]2 | [Bc]2 [FB]2 [FB]2 | %87
 [Bc]2 [FB]2 [FB]2 |!p!!ped![I:staff +1] z2!pp! [FA]2 [FA]2!ped-up! | %89
!p!!ped! z2!pp! [EG]2 [EG]2!ped-up! |!p!!ped! z2!pp! [EG]2 [EG]2!ped-up! | %91
!mp!!ped! z2[K:treble]!pp! [FA]2 [FA]2 | [Ac]2 [FA]2 [FA]2!ped-up! | [Ac]2 [FA]2 [FA]2 | %94
!ped! [Bc]2 [FB]2 [FB]2 | [Bc]2 [FB]2 [FB]2!ped-up! | %96
[K:bass]!p!!ped! x2[K:treble]!pp! [Ac]2 [FA]2!ped-up! | %97
[K:bass]!p!!ped! z2[K:treble]!pp! [Gc]2 [EG]2!ped-up! | %98
[K:bass]!mp!!ped! x2[K:treble]!pp! [FA]2 [FA]2 | [Ac]2 [FA]2 [FA]2!ped-up! | %100
!ped! [Ac]2 [FA]2 [FA]2 | [Ac]2 [FA]2 [FA]2!ped-up! |!ped! [Bc]2 [FB]2 [FB]2 | %103
 [Bc]2 [FB]2 [FB]2!ped-up! |[K:bass]!p!!ped! x2[K:treble]!pp! [Ac]2 [FA]2!ped-up! | %105
[K:bass]!p!!ped! x2[K:treble]!pp! [Ec]2 [EG]2 |[K:bass]!p! x2[K:treble]!pp! [Ec]2 [EG]2!ped-up! | %107
[K:bass]!mp!!ped! x2[K:treble]!pp! [Fc]2 [FA]2!ped-up! | [EG]2 [CE]2 [CE]2 | [EG]2 [CE]2 [CE]2 | %110
 [FG]2 [CF]2 [CF]2 | [FG]2 [CF]2 [CF]2 |[K:bass]!p!!ped! x2!pp! [CE]2 [CE]2!ped-up! | %113
!p!!ped! x2!pp! [=B,D]2 [B,D]2!ped-up! |!p!!ped! x2!pp! [CE]2 [CE]2 |!mp! x2!pp! [CE]2 [CE]2 | %116
!p! x2!pp! [C,E,G,]2 [C,E,G,]2 | [E,G,C]2 [C,E,G,]2 [C,,E,,G,,C,]2!ped-up! | %118
 [F,,A,,C,]2 [F,A,]2 [F,A,]2 | [A,C]2 [F,A,]2 [F,A,]2 | [B,C]2 [F,B,]2 [F,B,]2 | %121
 [B,C]2 [F,B,]2 [F,B,]2 |!p!!ped! x2!pp! [F,A,]2 [F,A,]2!ped-up! | %123
!p!!ped! x2!pp! [E,G,]2 [E,G,]2!ped-up! |!mp!!ped! x2!pp! [F,A,]2 [F,A,]2!ped-up! | %125
!p!!ped! x2!pp! [A,C]2 [A,C]2 |!p! x2!pp! [A,C]2 [A,C]2 |!mp! z2!pp! [F,A,C]2 [F,A,C]2!ped-up! | %128
!p!!ped! z2!pp! [E,G,C]2 [E,G,C]2 |!p! z2!pp! [E,G,C]2 [E,G,C]2!ped-up! | %130
!mp!!ped! z2!pp! [C,F,A,]2 [C,F,A,]2 |!mp! z2!pp! [C,F,]2 [C,F,]2!ped-up! | %132
!mp!!ped! z2!pp! [C,E,B,]2 [C,E,B,]2 |!mp! z2!pp! [C,E,]2 [C,E,]2!ped-up! | %134
!mp!!ped! z2!pp! [C,F,A,]2 [C,F,A,]2 |!mp! z2!pp! [C,F,]2 [C,F,]2!ped-up! | %136
!mp!!ped! z2!pp! [C,E,B,]2 [C,E,B,]2 |!mp! z2!pp! [C,E,]2 [C,E,]2 | A,4 B,2 | C2 A,2 B,2 | %140
 G,4 A,2 | B,2 G,2 A,2!ped-up! |!ped! [F,,F,-]6 | F,6!ped-up! |!ped! [F,,C,E,]6 | %145
 [F,,C,E,]6!ped-up! | [C,F,]2 z2 [B,,,B,,]2 | .[C,,C,]2 .[A,,,A,,]2 .[B,,,B,,]2 | %148
 .[B,,,B,,]2 .[G,,,G,,]2 .[A,,,A,,]2 | .[A,,,A,,]2 .[F,,,F,,]2 .[G,,,G,,]2 |] %150
[M:2/4]!ff!!ped! z G,/F,/ C,D,/E,/!ped-up! |!ped! F,G,/F,/ C,2!ped-up! | %152
!ped! B,,/C,/D,/_E,/!ped-up! .F,F,/<G,/ | C,C,/<F,/ [B,,,F,,B,,]2 | %154
!ff!!ped! z G,/F,/ C,D,/E,/!ped-up! |!ped! F,G,/F,/ C,2!ped-up! | %156
!ped! B,,/C,/D,/_E,/!ped-up! .F,F,/<G,/ | C,C,/<F,/ [B,,,F,,B,,]2 | %158
!ped! z [G,G]/[F,F]/ [C,C]D,/E,/!ped-up! |!ped! z [G,G]/[F,F]/ [C,C]2!ped-up! | %160
!ped! [B,,B,]/[C,C]/[D,D]/[_E,_E]/ [F,F]F,/<G,/!ped-up! | C, C,/<F,/ [B,,,F,,B,,]2 | %162
!ped! z [G,G]/[F,F]/ [C,C]D,/E,/!ped-up! |!ped! z [G,G]/[F,F]/ [C,C]2!ped-up! | %164
!ped! [B,,B,]/[C,C]/[D,D]/[_E,_E]/ [F,F]F,/<G,/!ped-up! | C, C,/<F,/ [B,,,F,,B,,]2 | %166
 CD/C/ G,A,/=B,/ | CD/C/ G,2 | F,/G,/A,/B,/ CC/<D/ | !^!G,G,/<C/ !^!F,2 | CD/C/ G,A,/=B,/ | %171
 CD/C/ G,2 | F,/G,/A,/B,/ CC/<D/ | G,G,/<C/ F,2 | %174
 [C,,C,]!ff![D,,D,]/[C,,C,]/ [G,,,G,,][A,,,A,,]/[=B,,,=B,,]/ | %175
 [C,,C,]!ff![D,,D,]/[C,,C,]/ [=B,,,=B,,][C,,C,]/[D,,D,]/ | %176
 [E,,E,][D,,D,]/[E,,E,]/ [F,,F,][G,,G,]/[A,,A,]/ | [G,,G,][A,,A,]/[^F,,^F,]/ .[G,,G,].[G,,,G,,] | %178
 [C,,C,][D,,D,]/[C,,C,]/ [G,,,G,,][A,,,A,,]/[=B,,,=B,,]/ | %179
 [C,,C,][D,,D,]/[C,,C,]/ [=B,,,=B,,][C,,C,]/[D,,D,]/ | %180
 [E,,E,][D,,D,]/[E,,E,]/ [F,,F,][G,,G,]/[A,,A,]/ | [G,,G,][A,,A,]/[^F,,^F,]/ .[G,,G,].[G,,,G,,] | %182
!ped! [C,,C,][D,,D,]/[C,,C,]/ [G,,,G,,][A,,,A,,]/[=B,,,=B,,]/ | %183
 [C,,C,][D,,D,]/[C,,C,]/ [=B,,,=B,,][C,,C,]/[D,,D,]/ | %184
 [E,,E,][F,,F,]/[E,,E,]/ [D,,D,][E,,E,]/[F,,F,]/ | %185
 [G,,G,][A,,A,]/[F,,F,]/ [G,,G,][A,,A,]/[=B,,=B,]/ | [C,C][D,D]/[=B,,=B,]/ [C,C][D,D]/[B,,B,]/ | %187
 [C,C][D,D]/[=B,,=B,]/ [C,C][D,D]/[B,,B,]/ | !arpeggio!.[C,E,G,C]!ped-up! z z2 | %189
 !arpeggio!.[C,,C,G,] z !fermata!z2 ||[M:3/4] .C2 | .F2 .C2 .D2 | .C2 .A,2 .B,2 | .A,2 .F,2 .G,2 | %194
 .A,2 .F,2 .G,2 | .A,2 .F,2 .G,2 | .F,2 .D,2 .[E,,E,]2 | .[D,,D,]2 .[A,,,A,,]2 .[A,,,A,,]2 | %198
 .[A,,,A,,]2 z2 A,,2 |!ped! x4 [D,A,-]2 | A,4 [D,^F,]2 | A,2 ^C2 D=B,!ped-up! | A,2 ^C2 D_B, | %203
 A,2 =C2 DB, | A,2 C2 G,B, | C2 z2 z2 | z6 | [C,,C,]2 z2 z2 |!ped! z6 |!ped! [F,,,F,,]4 [F,,C,-]2 | %210
 C,4 [F,,C,-]2!ped-up! | C,4 [F,,B,,D,]2 | [F,,,F,,]4 [F,,C,-]2 | C,4 [F,,C,-]2 | C,4 [F,,C,-]2 | %215
 C,4 [F,,C,]2 | F,,2 z2 [C,,C,]2 | [F,,F,]2 [C,,C,]2 [D,,D,]2 | [C,,C,]2 [A,,,A,,]2 [B,,,B,,]2 | %219
 [A,,,A,,]2 [F,,,F,,]2 [G,,,G,,]2 | [A,,,A,,]2 [F,,,F,,]2 .[C,C]2 | .[F,F]2 .[C,C]2 .[D,D]2 | %222
 .[C,C]2 .[A,,A,]2 .[B,,B,]2 | .[A,,A,]2 .[F,,F,]2 .[G,,G,]2 | .[A,,A,]2 .[F,,F,]2 .[G,,G,]2 | %225
 .[A,,A,]2 .[F,,F,]2 .[G,,G,]2 | .[A,,A,]2 .[F,,F,]2 .[G,,G,]2 | [A,,A,]6 | [G,,G,]4 [F,,F,]2 | %229
 [E,,E,]4 [D,,D,]2 | [C,,C,]4 [B,,,G,,B,,]2 | [A,,,F,,A,,]6 | [B,,,D,,G,,B,,]6 | [C,,F,,A,,C,]6 | %234
 [C,,E,,G,,C,]6 | .[F,,A,,C,F,]2 z2 [A,,A,]2 | [G,,G,]4 [F,,F,]2 | [E,,E,]4 [D,,D,]2 | %238
 [C,,C,]4 [B,,,G,,B,,]2 | [A,,,F,,A,,]6 | [B,,,D,,G,,B,,]6 | [C,,F,,A,,C,]6 | [C,,E,,G,,C,]6 | %243
!ped! [F,,A,,F,]2 [F,A,]2 [F,A,]2!ped-up! | [A,C]2 [F,A,]2 [F,A,]2 | [A,C]2 [F,A,]2 [F,A,]2 | %246
!ped! [C,E,G,C]2 [C,E,G,C]2 [C,E,G,C]2!ped-up! |!ped! [F,,A,,C,F,]2 [F,A,]2 [F,A,]2!ped-up! | %248
 [A,C]2 [F,A,]2 [F,A,]2 | [A,C]2 [F,A,]2 [F,A,]2 | %250
!ped! .[C,,G,,C,]2 .[C,,G,,C,]2 .[C,,G,,C,]2!ped-up! | .[F,,,A,,,C,,F,,]2 z2 z2 | %252
 .[F,,,A,,,C,,F,,]2 z2 z2 | .[F,,,A,,,C,,F,,]2 z2 z2 |] %254
V:3
 x2 | x6 | x6 | x6 | x6 | x6 | x6 | x6 | x6 | [D,,D,]6 | [D,,D,]6 | [D,,D,]6 | [D,,D,]6 | %13
 [D,,D,]6 | [D,,D,]6 | [D,,D,]6 | x4 :|[K:treble] x2 | x6 | x6 | x6 | x4[K:bass] x2 | x6 | x6 | %24
 x6 | x6 | [C,,C,]6 | [C,,C,]6 | [C,,C,]6 | [C,,C,]6 | [C,,C,]6 | [C,,C,]6 | x6 | x6 | x6 | x6 | %36
 x6 | x6 | x6 | x6 | x6 | x6 | x6 | x6 | x6 | x6 | x6 | x6 | x6 | x6 | x6 | x6 | x6 | x6 | x6 | %55
 x6 | x6 | x6 | x6 | x6 | x6 | x6 | x6 | x6 | x6 | x6 | x6 | x6 | x6 | x6 | x6 | x6 | x6 | x6 | %74
 x6 | x6 | x6 | x6 | x6 | x6 | F,6 | C,6 | !>!F,,6 | x6 | x6 | x6 | x6 | x6 | F,6 | C,6 | C,6 | %91
 !>!F,,6[K:treble] | x6 | x6 | x6 | x6 |[K:bass] F,4[K:treble] x2 |[K:bass] C,4[K:treble] x2 | %98
[K:bass] !>!F,,4[K:treble] x2 | x6 | x6 | x6 | x6 | x6 |[K:bass] F,4[K:treble] x2 | %105
[K:bass] C,4[K:treble] x2 |[K:bass] C,4[K:treble] x2 |[K:bass] !>!F,,4[K:treble] x2 | x6 | x6 | %110
 x6 | x6 |[K:bass] C,4 x2 | G,4 x2 | C,4 x2 | G,,4 x2 | C,,4 x2 | x6 | x6 | x6 | x6 | x6 | %122
 F,,4 x2 | C,,4 x2 | !>!F,,4 x2 | C,4 x2 | F,4 x2 | F,,4 z2 | C,4 z2 | C,,6 | !>!F,,6 | !>!F,,,6 | %132
 !>!F,,6 | !>!F,,,6 | !>!F,,6 | !>!F,,,6 | !>!F,,6 | !>!F,,,6 | !arpeggio![F,,C,F,]6- | %139
 [F,,C,F,]6 | [F,,C,]6- | [F,,C,]6 | A,,4 B,,2 | C,2 A,,2 B,,2 | G,,4 A,,2 | B,,2 G,,2 A,,2 | %146
 !>!F,,2 x4 | x6 | x6 | x6 |][M:2/4] [F,,,C,,F,,]4 | [F,,A,,]4 | [B,,,F,,]4 | .[F,,A,,]2 D,2 | %154
 [F,,,C,,F,,]4 | [F,,A,,]4 | [B,,,F,,]4 | .[F,,A,,]2 D,2 | [F,,C,F,]4 | [F,,C,F,]4 | [B,,F,B,]4 | %161
 [F,,A,,]2 x2 | [F,,C,F,]4 | [F,,C,F,]4 | [B,,F,B,]4 | [F,,A,,]2 x2 | C,4 | C,4 | !>!F,,4 | %169
 C,2 !>!F,,2 | C,4 | C,4 | !>!F,,4 | !^!C,2 !^!F,,2 | x4 | x4 | x4 | x4 | x4 | x4 | x4 | x4 | x4 | %183
 x4 | x4 | x4 | x4 | x4 | x4 | x4 ||[M:3/4] x2 | x6 | x6 | x6 | x6 | x6 | x6 | x6 | x6 | [D,,D,]6 | %200
 [D,,D,]6 | D,6 | D,6 | D,6 | D,4 B,,2 | C,2 x2 x2 | x6 | x6 | x6 | x6 | [F,,,F,,]4 x2 | %211
 [F,,,F,,]4 x2 | x6 | [F,,,F,,]4 z2 | [F,,,F,,]4 x2 | [F,,,F,,]4 x2 | F,,,2 x2 x2 | x6 | x6 | x6 | %220
 x6 | x6 | x6 | x6 | x6 | x6 | x6 | x6 | x6 | x6 | x6 | x6 | x6 | x6 | x6 | x6 | x6 | x6 | x6 | %239
 x6 | x6 | x6 | x6 | x6 | x6 | x6 | x6 | x6 | x6 | x6 | x6 | x6 | x6 | x6 |] %254
V:4
 x2 | x6 | x6 | x6 | x6 | x6 | x6 | x6 | x6 | x6 | x6 | x6 | x6 | x6 | x6 | x4 [G^c]2 | x4 :| x2 | %18
 x6 | x6 | x6 | x6 | x6 | x6 | x6 | x6 | x6 | x6 | x6 | x6 | x6 | x6 | x6 | x6 | x6 | x6 | x6 | %37
 x6 | x6 | x6 | x6 | x6 | x6 | x6 | x6 | x6 | x6 | x6 | x6 | x6 | x6 | x6 | x6 | x6 | x6 | x6 | %56
 x6 | x6 | x6 | x6 | x6 | x6 |!8va(! x6!8va)! | x6 | x6 | x6 |!8va(! x6!8va)! | x6 | x6 | x6 | x6 | %71
 x6 | x6 | x6 | [Ac]2 [FA]2 [FA]2 | [Ac]2 [FA]2 [FA]2 | x6 | x6 | x6 | x6 | x6 | x6 | [Ac]2 x4 | %83
 x6 | x6 | x6 | x6 | x6 | x6 | z2 [Bc]2 [Bc]2 | z2 [Bc]2 [Bc]2 | x6 | x2!8va(! x4 | x6 | x6 | x6 | %96
 x6 | x6 | x6 | c'6 | x6 | x6 | x6 | x6 | x6 | x6 | b6- | b2 a2 f2!8va)! | x6 | x6 | x6 | x6 | %112
 [EG]2 x4 | [FG]2 x4 | [EG]2 x4 | [EG]2 x4 | [EG]2 x4 | x6 | x6 | x6 | x6 | x6 | [A,C]2 x4 | %123
 [G,C]2 x4 | [A,C]2 x4 | x6 | c6- | c6 | z2 g2 b2- | b2 x2 c2 | [cf]2 x4 | C6 | C6 | C6 | x6 | x6 | %136
 x6 | x6 | A4 x2 | c4 z2 | [Ee]6 | B6 | x6 | x6 | x6 | x6 | x6 | x6 | x6 | x6 |][M:2/4] [A,C]4 | %151
 [A,C]4 |[I:staff +1] [D,F,]4 | [_E,A,]2[I:staff -1] x2 | [A,C]4 | [A,C]4 |[I:staff +1] [D,F,]4 | %157
 [_E,A,]2[I:staff -1] x2 | x2 x D/E/ | x4 | x2 x F/<G/ | x!ff! C/<F/ x2 | x2 x D/E/ | x4 | %164
 x2 x F/<G/ | x!ff! C/<F/ x2 | x4 | x4 | x4 | x2 !^![Ff]2 | x4 | x4 | x4 | x4 | %174
 CD/C/ [G,=B,][A,C]/[B,D]/ | C[DF]/[CE]/ [=B,D][CE]/[DF]/ | [CE] x D x | C x =B, x | %178
 x2 [G,=B,][A,C]/[B,D]/ | x2 [=B,D][CE]/[DF]/ | E x x2 | x4 | x4 | x4 | x4 | x4 | x4 | x4 | %188
 !arpeggio!.[EGc] z z2 | x4 ||[M:3/4] x2 | x6 | x6 | x6 | x6 | x6 | x6 | x6 | x6 | x6 | x6 | x6 | %202
 x6 | x6 | x6 | x6 | x6 | x6 | x6 | x6 | x6 | x6 | x6 | x6 | x6 | x6 | x6 | x6 | x6 | x6 | x6 | %221
 x6 | x6 | x6 | x6 | x6 | x6 | x6 | x6 | x6 | x6 | x6 | x6 | x6 | x6 | x4!8va(! x2 | x6 | x6 | x6 | %239
 x6 | x6 | x6 | x6 | x!8va)! x5 | x6 |!8va(! x6!8va)! | x6 | x6 | x6 |!8va(! x6!8va)! | x6 | x6 | %252
 x6 | x6 |] %254
V:5
 x2 | x6 | x6 | x6 | x6 | x6 | x6 | x6 | x6 | x6 | x6 | x6 | x6 | x6 | x6 | x6 | x4 :| %17
[K:treble] x2 | x6 | x6 | x6 | x4[K:bass] x2 | x6 | x6 | x6 | x6 | x6 | x6 | x6 | x6 | x6 | x6 | %32
 x6 | x6 | x6 | x6 | x6 | x6 | x6 | x6 | x6 | x6 | x6 | x6 | x6 | x6 | x6 | x6 | x6 | x6 | x6 | %51
 x6 | x6 | x6 | x6 | x6 | x6 | x6 | x6 | x6 | x6 | x6 | x6 | x6 | x6 | x6 | x6 | x6 | x6 | x6 | %70
 x6 | x6 | x6 | x6 | x6 | x6 | x6 | x6 | x6 | x6 | x6 | x6 | x6 | x6 | x6 | x6 | x6 | x6 | x6 | %89
 x6 | x6 | x2[K:treble] x4 | x6 | x6 | x6 | x6 |[K:bass] x2[K:treble] x4 | %97
[K:bass] x2[K:treble] x4 |[K:bass] x2[K:treble] x4 | x6 | x6 | x6 | x6 | x6 | %104
[K:bass] x2[K:treble] x4 |[K:bass] x2[K:treble] x4 |[K:bass] x2[K:treble] x4 | %107
[K:bass] x2[K:treble] x4 | x6 | x6 | x6 | x6 |[K:bass] x6 | x6 | x6 | x6 | x6 | x6 | x6 | x6 | x6 | %121
 x6 | x6 | x6 | x6 | x6 | x6 | x6 | x6 | x6 | x6 | x6 | x6 | x6 | x6 | x6 | x6 | x6 | x6 | F4 x2 | %140
 x6 | [CE]6 | x6 | x6 | x6 | x6 | x6 | x6 | x6 | x6 |][M:2/4] x4 | x4 | x4 | x4 | x4 | x4 | x4 | %157
 x4 | x4 | x4 | x4 | x4 | x4 | x4 | x4 | x4 | x4 | x4 | x4 | x4 | x4 | x4 | x4 | x4 | x4 | x4 | %176
 x4 | x4 | x4 | x4 | x4 | x4 | x4 | x4 | x4 | x4 | x4 | x4 | x4 | x4 ||[M:3/4] x2 | x6 | x6 | x6 | %194
 x6 | x6 | x6 | x6 | x6 | x6 | x6 | x6 | x6 | x6 | x6 | x6 | x6 | x6 | x6 | x6 | x6 | x6 | x6 | %213
 x6 | x6 | x6 | x6 | x6 | x6 | x6 | x6 | x6 | x6 | x6 | x6 | x6 | x6 | x6 | x6 | x6 | x6 | x6 | %232
 x6 | x6 | x6 | x6 | x6 | x6 | x6 | x6 | x6 | x6 | x6 | x6 | x6 | x6 | x6 | x6 | x6 | x6 | x6 | %251
 x6 | x6 | x6 |] %254

